img/svgicons/arrow.svg

<svg width="35" height="35" viewBox="0 0 35 35" fill="none" xmlns="http://www.w3.org/2000/svg">
<circle cx="17.5" cy="17.5" r="17" transform="matrix(-1 0 0 1 35 0)" stroke="#11D081"/>
<path d="M9.00001 18C9.00001 17.4477 9.44772 17 10 17H20.9686C21.0429 17 21.0801 16.9101 21.0276 16.8576L16.29 12.12C15.8983 11.7283 15.8994 11.0928 16.2925 10.7025C16.6837 10.3141 17.3152 10.3152 17.705 10.705L24.5066 17.5066C24.7791 17.7791 24.7791 18.2209 24.5066 18.4934L17.74 25.26C17.3313 25.6687 16.6687 25.6687 16.26 25.26C15.8899 24.8898 15.8896 24.2899 16.2594 23.9194L21.0339 19.1364C21.0841 19.086 21.0485 19 20.9773 19H10C9.44772 19 9.00001 18.5523 9.00001 18Z" fill="#11D081"/>
</svg>

<svg width="35" height="35" fill="none" xmlns="http://www.w3.org/2000/svg"><circle cx="17.5" cy="17.5" r="17" transform="matrix(-1 0 0 1 35 0)" stroke="#11D081"/><path d="M9 18a1 1 0 011-1h10.969c.074 0 .111-.09.059-.142L16.29 12.12a1 1 0 011.415-1.415l6.802 6.802a.698.698 0 010 .986L17.74 25.26a1.047 1.047 0 01-1.48 0 .948.948 0 010-1.34l4.774-4.784a.08.08 0 00-.057-.136H10a1 1 0 01-1-1z" fill="#11D081"/></svg>
